X: 047
M: C|
L: 1/8
K: D
|:\
a2f2 f2d2 | d2A2 A4 | d2d2 efga | Tf4 e4 |\
a2f2 f2d2 | d2A2 A4 | d2cB cdec | {c2}d4 D4 :|
|:\
f2ef gfed | e2A2 A2Bc | d2cd B2d2 | c2Bc ABcd |\
e2a2 a2^g2 | a2^gf e2d2 | c2BA B2^G2 | A4 A,4 |
d2A2 e2A2 | f2ed e2A2 | d2A2 e2A2 | f2ed e2a2 |\
f2ed cdec | d4 D4 |]

